X: 3
T: The Swallow's Tail
R: reel
M: 4/4
L: 1/8
K: Gmaj
e2eg eA~A2|eAfA g2ga|gedB dG~G2|BGBd g2fg|!egfg eA~A2|eAfA g3a|bagb aged|egdB A2Bd:||!e2a2 aged|B/c/d ef g2ga|gedB dG~G2|BGBd g2fg|!ea~a2 aged|B/c/d ef g3a|bagb aged|e/f/g dB A2Bd:||


